X: 16265
T: Greta's Favourite
R: reel
M: 4/4
K: Edorian
|:eBdB {B}AGED|(3GFE FD EDB,D|eAdB (3ABA GA|(3BdB Ad BeeA|
BBeB dgfd|BAGF EDB,D|=CEGE DAFA|B=cBA GEE2:|
|:Beef g3e|fe{e}dA BAdA|Be{f}ee defa|bgaf gefd|
ef{e}de BdAB|G{c}GFG EDB,D|=CEGE DAFA|B=cBA GEE2:|

